X:77
T:Oboe Concerto in D minor - Grave
C:Albinoni, T.
M:4/4
L:1/8
Q:1/4=52
K:Dmin
|:A2|d4 cd ef|g2 fe d2 A2|B4 AG FE|D4 D2 EF|
G4 FG AB|c2 BA G2 F2|E4 FG AB|A4 A2:|

